icons/image-block.svg

<svg xmlns="http://www.w3.org/2000/svg" viewBox="0 0 24 24" fill="currentColor">
  <path d="M14.5303 4.55543c.9274-.92737 2.2607-1.06563 3.2551-.47634l-3.717 3.71705c-.6183-1.06644-.4501-2.39319.4419-3.22144l.0102-.00945.0098-.00982Zm3.8201 3.85936c-.8342.89832-2.2151 1.04975-3.2336.45428l3.7148-3.71488c.6182 1.06643.45 2.39311-.442 3.22134l-.0203.0189-.0189.02036Zm1.0897-4.91022c-1.6052-1.71722-4.2818-1.68817-5.9607-.01957-1.7172 1.60522-1.6881 4.2818-.0195 5.96068 1.592 1.70252 4.3739 1.70592 5.9707.01012 1.707-1.60624 1.6748-4.27563.0095-5.95123ZM3.75 7.0249c0-1.78578 1.46421-3.25 3.25-3.25h3c.4142 0 .75-.33578.75-.75 0-.41421-.3358-.75-.75-.75H7c-2.61421 0-4.75 2.13579-4.75 4.75v10c0 2.6142 2.13579 4.75 4.75 4.75h10c2.6142 0 4.75-2.1358 4.75-4.75v-6c0-.4142-.3358-.75-.75-.75s-.75.3358-.75.75v3.076l-1.5482-1.4335-.0079-.0069c-1.0271-.8988-2.5495-1.0915-3.6828-.1044l-.7146.6046-2.5662-2.5662c-.9534-.95344-2.46782-1.10107-3.57655-.2724L3.75 13.5462V7.0249Zm11.6109 7.2002 4.4407 4.4407c.2847-.4826.4484-1.0437.4484-1.6409v-.8797l-2.5512-2.3622c-.5698-.4937-1.2407-.4999-1.7049-.0937l-.0094.0082-.6236.5276Zm-4.6912-2.5699 8.0946 8.0946c-.5091.3318-1.1155.5251-1.7643.5251H7c-1.78579 0-3.25-1.4642-3.25-3.25v-1.6196L9.04306 11.53l.00003.0001.00691-.0052c.49094-.3682 1.1742-.3151 1.6197.1303Z"/>
</svg>

<svg width="24" height="24" viewBox="0 0 24 24" fill="none" xmlns="http://www.w3.org/2000/svg">
<path fill-rule="evenodd" clip-rule="evenodd" d="M14.5303 4.55543C15.4577 3.62806 16.791 3.4898 17.7854 4.07909L14.0684 7.79614C13.4501 6.7297 13.6183 5.40295 14.5103 4.5747L14.5205 4.56525L14.5303 4.55543ZM18.3504 8.41479C17.5162 9.31311 16.1353 9.46454 15.1168 8.86907L18.8316 5.15419C19.4498 6.22062 19.2816 7.5473 18.3896 8.37553L18.3693 8.39443L18.3504 8.41479ZM19.4401 3.50457C17.8349 1.78735 15.1583 1.8164 13.4794 3.485C11.7622 5.09022 11.7913 7.7668 13.4599 9.44568C15.0519 11.1482 17.8338 11.1516 19.4306 9.4558C21.1376 7.84956 21.1054 5.18017 19.4401 3.50457ZM3.75 7.0249C3.75 5.23912 5.21421 3.7749 7 3.7749H10C10.4142 3.7749 10.75 3.43912 10.75 3.0249C10.75 2.61069 10.4142 2.2749 10 2.2749H7C4.38579 2.2749 2.25 4.41069 2.25 7.0249V17.0249C2.25 19.6391 4.38579 21.7749 7 21.7749H17C19.6142 21.7749 21.75 19.6391 21.75 17.0249V11.0249C21.75 10.6107 21.4142 10.2749 21 10.2749C20.5858 10.2749 20.25 10.6107 20.25 11.0249V14.1009L18.7018 12.6674L18.6939 12.6605C17.6668 11.7617 16.1444 11.569 15.0111 12.5561L14.2965 13.1607L11.7303 10.5945C10.7769 9.64106 9.26248 9.49343 8.15375 10.3221L3.75 13.5462V7.0249ZM15.3609 14.2251L19.8016 18.6658C20.0863 18.1832 20.25 17.6221 20.25 17.0249V16.1452L17.6988 13.783C17.129 13.2893 16.4581 13.2831 15.9939 13.6893L15.9845 13.6975L15.3609 14.2251ZM10.6697 11.6552L18.7643 19.7498C18.2552 20.0816 17.6488 20.2749 17 20.2749H7C5.21421 20.2749 3.75 18.8107 3.75 17.0249V15.4053L9.04306 11.53L9.04309 11.5301L9.05 11.5249C9.54094 11.1567 10.2242 11.2098 10.6697 11.6552Z" fill="black"/>
</svg>
